X: 24799
T: Maggie In The Woods
R: polka
M: 2/4
K: Gmajor
G2 D2|G3 A|B2 d2|e4|d2 B2|A2 G2|A1/2B3/2 A2|A4|
G2 D2|G3 A|B2 d2|e4|d2 B2|A2 B1/2A3/2|G4|G4:|
g2 f2|e2 d2|B2 d2|e4|d2 B2|A2 G2|A1/2B3/2 A2|A4|
g2 f2|e2 d2|B2 d2|e4|d2 B2|A2 B1/2A3/2|G4|G4:|

